X:24
T:Dummer Five Hand Reel
M:2/4
K:G
Bc|"G"d2Bd "D7"c2Ac|"G"B2G2 GFGB|"D7"A2F2 fefg|"G"A2G2 G2Bc|d2Bd "D7"c2Ac|
"G"B2G2 GFGB|"D7"A2F2 fefg|"G"A2G2 G4::"G"G2Bd g2>f2|"C"f2e2e4|
"D7"D2FA f2>e2|"G"e2d2d4|G2Bd g2>f2|"C"f2e2e2>e2|e2a2 "D7"e2f2|"G"g4g4:|

